Design/Resources/prayer_book.svg

<?xml version="1.0" encoding="UTF-8" standalone="no"?>
<!-- Generator: Adobe Illustrator 16.0.0, SVG Export Plug-In . SVG Version: 6.00 Build 0)  -->

<svg
   xmlns:dc="http://purl.org/dc/elements/1.1/"
   xmlns:cc="http://creativecommons.org/ns#"
   xmlns:rdf="http://www.w3.org/1999/02/22-rdf-syntax-ns#"
   xmlns:svg="http://www.w3.org/2000/svg"
   xmlns="http://www.w3.org/2000/svg"
   xmlns:sodipodi="http://sodipodi.sourceforge.net/DTD/sodipodi-0.dtd"
   xmlns:inkscape="http://www.inkscape.org/namespaces/inkscape"
   version="1.1"
   id="Layer_1"
   x="0px"
   y="0px"
   width="100"
   height="85.637154"
   viewBox="0 0 100 85.637151"
   enable-background="new 0 0 100 85.634"
   xml:space="preserve"
   inkscape:version="0.91 r13725"
   sodipodi:docname="prayer_book.svg"><metadata
     id="metadata19"><rdf:RDF><cc:Work
         rdf:about=""><dc:format>image/svg+xml</dc:format><dc:type
           rdf:resource="http://purl.org/dc/dcmitype/StillImage" /><dc:title></dc:title></cc:Work></rdf:RDF></metadata><defs
     id="defs17" /><sodipodi:namedview
     pagecolor="#ffffff"
     bordercolor="#666666"
     borderopacity="1"
     objecttolerance="10"
     gridtolerance="10"
     guidetolerance="10"
     inkscape:pageopacity="0"
     inkscape:pageshadow="2"
     inkscape:window-width="1024"
     inkscape:window-height="1217"
     id="namedview15"
     showgrid="false"
     fit-margin-top="0"
     fit-margin-left="0"
     fit-margin-right="0"
     fit-margin-bottom="0"
     inkscape:zoom="2.7559146"
     inkscape:cx="71.903089"
     inkscape:cy="42.818994"
     inkscape:window-x="-8"
     inkscape:window-y="-8"
     inkscape:window-maximized="1"
     inkscape:current-layer="Layer_1" /><g
     id="g4147"
     transform="matrix(1.00001,0,0,1.00001,-0.00100001,2.947931e-4)"><path
       id="path3"
       d="m 73.271,65.844 c 5.517,-1.118 8.547,-5.664 8.547,-12.416 l 0,-47.164 c 0,-5.108 -3.237,-6.689 -8.588,-6.169 L 59.09,2.604 c 0,0 -7.575,1.515 -7.575,9.091 0,4.545 0,59.091 0,59.091 l 6.061,-1.376 0,16.226 6.061,-5.757 6.061,5.757 0,-18.979 3.573,-0.813 z"
       inkscape:connector-curvature="0"
       style="fill:#010101" /><path
       id="path5"
       d="M 77.272,66.241 C 92.423,63.211 90.909,49.575 90.909,49.575 l 0,-42.361 c 0,-1.987 -1.57,-2.791 -2.995,-2.791 -1.496,0 -3.065,0.804 -3.065,2.791 l 0,46.906 c 0,10.606 -7.577,12.121 -7.577,12.121 z"
       inkscape:connector-curvature="0"
       style="fill:#010101" /><path
       id="path7"
       d="m 22.727,66.241 c 0,0 -7.576,-1.515 -7.576,-12.121 l 0,-46.906 c 0,-1.987 -1.57,-2.791 -3.065,-2.791 -1.423,0 -2.996,0.804 -2.996,2.791 l 0,42.361 c 10e-4,0 -1.514,13.635 13.637,16.666 z"
       inkscape:connector-curvature="0"
       style="fill:#010101" /><path
       id="path9"
       d="M 17.384,67.781 C 9.091,66.241 6.061,57.89 6.061,50.289 l 0,-34.05 c 0,-1.983 -1.57,-3.03 -3.03,-3.03 -1.515,0 -3.03,1.047 -3.03,3.03 l 0,35.844 c 0,3.185 0,18.505 16.909,22.225 l 33.09,3.427 4.546,-0.472 0,-3.843 L 50,74.333 17.384,67.781 Z"
       inkscape:connector-curvature="0"
       style="fill:#010101" /><path
       id="path11"
       d="m 26.728,65.844 21.757,4.942 c 0,0 0,-54.546 0,-59.091 0,-7.576 -7.576,-9.091 -7.576,-9.091 l -14.14,-2.51 c -5.35,-0.521 -8.588,1.06 -8.588,6.169 l 0,47.165 c 10e-4,6.752 3.031,11.298 8.547,12.416 z"
       inkscape:connector-curvature="0"
       style="fill:#010101" /><path
       id="path13"
       d="m 96.97,13.209 c -1.46,0 -3.03,1.047 -3.03,3.03 l 0,34.046 c 0,7.605 -3.03,15.954 -11.322,17.492 l -9.89,1.989 0,5.613 10.363,-1.072 C 100,70.588 100,55.268 100,52.083 l 0,-35.844 c 0,-1.982 -1.516,-3.03 -3.03,-3.03 z"
       inkscape:connector-curvature="0"
       style="fill:#010101" /></g></svg>

<?xml version="1.0" encoding="utf-8"?>
<!-- Generator: Adobe Illustrator 16.0.0, SVG Export Plug-In . SVG Version: 6.00 Build 0)  -->
<!DOCTYPE svg PUBLIC "-//W3C//DTD SVG 1.1//EN" "http://www.w3.org/Graphics/SVG/1.1/DTD/svg11.dtd">
<svg version="1.1" id="Layer_1" xmlns="http://www.w3.org/2000/svg" xmlns:xlink="http://www.w3.org/1999/xlink" x="0px" y="0px"
	 width="100px" height="85.634px" viewBox="0 0 100 85.634" enable-background="new 0 0 100 85.634" xml:space="preserve">
<path fill="#010101" d="M73.271,65.844c5.517-1.118,8.547-5.664,8.547-12.416V6.264c0-5.108-3.237-6.689-8.588-6.169l-14.14,2.509
	c0,0-7.575,1.515-7.575,9.091c0,4.545,0,59.091,0,59.091l6.061-1.376v16.226l6.061-5.757l6.061,5.757V66.657L73.271,65.844z"/>
<path fill="#010101" d="M77.272,66.241c15.151-3.03,13.637-16.666,13.637-16.666V7.214c0-1.987-1.57-2.791-2.995-2.791
	c-1.496,0-3.065,0.804-3.065,2.791V54.12C84.849,64.726,77.272,66.241,77.272,66.241z"/>
<path fill="#010101" d="M22.727,66.241c0,0-7.576-1.515-7.576-12.121V7.214c0-1.987-1.57-2.791-3.065-2.791
	c-1.423,0-2.996,0.804-2.996,2.791v42.361C9.091,49.575,7.576,63.21,22.727,66.241z"/>
<path fill="#010101" d="M17.384,67.781C9.091,66.241,6.061,57.89,6.061,50.289V16.239c0-1.983-1.57-3.03-3.03-3.03
	c-1.515,0-3.03,1.047-3.03,3.03v35.844c0,3.185,0,18.505,16.909,22.225L50,77.735l4.546-0.472V73.42L50,74.333L17.384,67.781z"/>
<path fill="#010101" d="M26.728,65.844l21.757,4.942c0,0,0-54.546,0-59.091c0-7.576-7.576-9.091-7.576-9.091l-14.14-2.51
	c-5.35-0.521-8.588,1.06-8.588,6.169v47.165C18.182,60.18,21.212,64.726,26.728,65.844z"/>
<path fill="#010101" d="M96.97,13.209c-1.46,0-3.03,1.047-3.03,3.03v34.046c0,7.605-3.03,15.954-11.322,17.492l-9.89,1.989v5.613
	l10.363-1.072C100,70.588,100,55.268,100,52.083V16.239C100,14.257,98.484,13.209,96.97,13.209z"/>
</svg>
